; generated by PrusaSlicer 2.6.1+win64 on 2024-06-11 at 16:10:37 UTC


;
;

;
;

;
;
; 

; external perimeters extrusion width = 0.45mm
; perimeters extrusion width = 0.45mm
; infill extrusion width = 0.45mm
; solid infill extrusion width = 0.45mm
; top infill extrusion width = 0.40mm
; support material extrusion width = 0.37mm
; first layer extrusion width = 0.50mm

; external perimeters extrusion width = 0.45mm
; perimeters extrusion width = 0.45mm
; infill extrusion width = 0.45mm
; solid infill extrusion width = 0.45mm
; top infill extrusion width = 0.40mm
; support material extrusion width = 0.37mm
; first layer extrusion width = 0.50mm

; external perimeters extrusion width = 0.45mm
; perimeters extrusion width = 0.45mm
; infill extrusion width = 0.45mm
; solid infill extrusion width = 0.45mm
; top infill extrusion width = 0.40mm
; support material extrusion width = 0.37mm
; first layer extrusion width = 0.50mm

; external perimeters extrusion width = 0.45mm
; perimeters extrusion width = 0.45mm
; infill extrusion width = 0.45mm
; solid infill extrusion width = 0.45mm
; top infill extrusion width = 0.40mm
; support material extrusion width = 0.37mm
; first layer extrusion width = 0.50mm

M73 P0 R46
M201 X2500 Y2500 Z200 E2500 ; sets maximum accelerations, mm/sec^2
M203 X200 Y200 Z40 E100 ; sets maximum feedrates, mm / sec
M204 P2000 R1200 T2000 ; sets acceleration (P, T) and retract acceleration (R), mm/sec^2
M205 X8.00 Y8.00 Z2.00 E10.00 ; sets the jerk limits, mm/sec
M205 S0 T0 ; sets the minimum extruding and travel feed rate, mm/sec
;TYPE:Custom
M17 ; enable steppers
M862.3 P "MK4" ; printer model check
M862.1 P0.4 ; nozzle diameter check
M555 X51.6885 Y75.7077 W120.282 H81.0965

G90 ; use absolute coordinates
M83 ; extruder relative mode

M140 S60 ; set bed temp

M104 S170 ; set extruder temp for bed leveling
M109 R170 ; wait for temp


M84 E ; turn off E motor

G28 ; home all without mesh bed level

G1 X42 Y-4 Z5 F4800

M302 S160 ; lower cold extrusion limit to 160C


G1 E-2 F2400 ; retraction


M84 E ; turn off E motor

G29 P9 X10 Y-4 W32 H4

M106 S100

G0 Z40 F10000

M190 S60 ; wait for bed temp

M107

;
; MBL
;
M84 E ; turn off E motor
G29 P1 ; invalidate mbl & probe print area
G29 P1 X0 Y0 W50 H20 C ; probe near purge place
G29 P3.2 ; interpolate mbl probes
G29 P3.13 ; extrapolate mbl outside probe area
G29 A ; activate mbl

; prepare for purge
M104 S215
G0 X0 Y-4 Z15 F4800 ; move away and ready for the purge
M109 S215

G92 E0
M569 S0 E ; set spreadcycle mode for extruder

;
; Extrude purge line
;
G92 E0 ; reset extruder position
G1 E2 F2400 ; deretraction after the initial one before nozzle cleaning
G0 E7 X15 Z0.2 F500 ; purge
G0 X25 E4 F500 ; purge
G0 X35 E4 F650 ; purge
G0 X45 E4 F800 ; purge
G0 X48 Z0.05 F8000 ; wipe, move close to the bed
G0 X51 Z0.2 F8000 ; wipe, move quickly away from the bed

G92 E0
M221 S100 ; set flow to 100%
G21 ; set units to millimeters
G90 ; use absolute coordinates
M83 ; use relative distances for extrusion
M900 K0.05 ; Filament gcode



M142 S36 ; set heatbreak target temp
M107
;LAYER_CHANGE
;Z:0.2
;HEIGHT:0.2
;BEFORE_LAYER_CHANGE
G92 E0.0
;0.2


G1 E-.8 F2100
G1 Z.2 F720
;AFTER_LAYER_CHANGE
;0.2
; printing object 3dprint_rod.stl id:3 copy 0
G1 Z.4
G1 X152.478 Y80.56 F12000
G1 Z.2 F720
G1 E.8 F1500
M204 P600
;TYPE:Perimeter
;WIDTH:0.499999
G1 F1200
G1 X152.731 Y81.003 E.01939
G1 X153.108 Y81.217 E.01648
G1 X153.351 Y81.221 E.00924
G1 X153.731 Y81.077 E.01544
G1 X153.895 Y80.995 E.00697
G1 X154.084 Y81.083 E.00792
G1 X154.628 Y81.078 E.02068
G1 X154.795 Y80.987 E.00723
G1 X154.85 Y81.041 E.00293
G1 X155.059 Y81.093 E.00819
G1 X155.528 Y81.078 E.01783
G1 X155.695 Y80.987 E.00723
G1 X155.75 Y81.041 E.00293
G1 X155.959 Y81.093 E.00819
G1 X156.428 Y81.078 E.01783
G1 X156.595 Y80.987 E.00723
G1 X156.65 Y81.041 E.00293
G1 X156.859 Y81.093 E.00819
G1 X157.328 Y81.078 E.01783
G1 X157.495 Y80.987 E.00723
G1 X157.55 Y81.041 E.00293
G1 X157.759 Y81.093 E.00819
G1 X158.228 Y81.078 E.01783
G1 X158.395 Y80.987 E.00723
G1 X158.45 Y81.041 E.00293
G1 X158.659 Y81.093 E.00819
G1 X159.128 Y81.078 E.01783
G1 X159.295 Y80.987 E.00723
G1 X159.35 Y81.041 E.00293
G1 X159.559 Y81.093 E.00819
G1 X160.028 Y81.078 E.01783
G1 X160.195 Y80.987 E.00723
G1 X160.25 Y81.041 E.00293
G1 X160.459 Y81.093 E.00819
G1 X160.928 Y81.078 E.01783
G1 X161.095 Y80.987 E.00723
G1 X161.15 Y81.041 E.00293
G1 X161.359 Y81.093 E.00819
G1 X161.828 Y81.078 E.01783
G1 X161.995 Y80.987 E.00723
G1 X162.05 Y81.041 E.00293
G1 X162.259 Y81.093 E.00819
G1 X162.728 Y81.078 E.01783
G1 X162.895 Y80.987 E.00723
G1 X162.95 Y81.041 E.00293
G1 X163.159 Y81.093 E.00819
G1 X163.628 Y81.078 E.01783
G1 X163.795 Y80.987 E.00723
G1 X163.85 Y81.041 E.00293
G1 X164.059 Y81.093 E.00819
G1 X164.528 Y81.078 E.01783
G1 X164.695 Y80.987 E.00723
G1 X164.75 Y81.041 E.00293
G1 X164.959 Y81.093 E.00819
G1 X165.428 Y81.078 E.01783
G1 X165.595 Y80.987 E.00723
G1 X165.65 Y81.041 E.00293
G1 X165.859 Y81.093 E.00819
G1 X166.328 Y81.078 E.01783
G1 X166.495 Y80.987 E.00723
G1 X166.55 Y81.041 E.00293
G1 X166.759 Y81.093 E.00819
G1 X167.228 Y81.078 E.01783
G1 X167.395 Y80.987 E.00723
G1 X167.45 Y81.041 E.00293
G1 X167.659 Y81.093 E.00819
G1 X168.128 Y81.078 E.01783
G1 X168.295 Y80.987 E.00723
G1 X168.35 Y81.041 E.00293
G1 X168.559 Y81.093 E.00819
G1 X169.028 Y81.078 E.01783
G1 X169.195 Y80.987 E.00723
G1 X169.362 Y81.078 E.00723
G1 X169.773 Y81.096 E.01564
G1 X170.095 Y81.011 E.01266
G1 X170.331 Y81.088 E.00943
G1 X170.249 Y81.553 E.01795
G1 X170.248 Y81.964 E.01562
G1 X170.313 Y82.588 E.02384
G1 X170.038 Y82.518 E.01079
G1 X169.562 Y82.533 E.0181
G1 X169.395 Y82.623 E.00721
G1 X169.34 Y82.569 E.00293
G1 X169.132 Y82.517 E.00815
G1 X168.662 Y82.533 E.01787
G1 X168.495 Y82.623 E.00721
G1 X168.44 Y82.569 E.00293
G1 X168.232 Y82.517 E.00815
G1 X167.762 Y82.533 E.01787
G1 X167.595 Y82.623 E.00721
G1 X167.54 Y82.569 E.00293
G1 X167.332 Y82.517 E.00815
G1 X166.862 Y82.533 E.01787
G1 X166.695 Y82.623 E.00721
G1 X166.64 Y82.569 E.00293
G1 X166.432 Y82.517 E.00815
G1 X165.962 Y82.533 E.01787
G1 X165.795 Y82.623 E.00721
G1 X165.74 Y82.569 E.00293
G1 X165.532 Y82.517 E.00815
G1 X165.062 Y82.533 E.01787
G1 X164.895 Y82.623 E.00721
G1 X164.84 Y82.569 E.00293
G1 X164.632 Y82.517 E.00815
G1 X164.162 Y82.533 E.01787
G1 X163.995 Y82.623 E.00721
G1 X163.94 Y82.569 E.00293
G1 X163.732 Y82.517 E.00815
G1 X163.262 Y82.533 E.01787
G1 X163.095 Y82.623 E.00721
G1 X163.04 Y82.569 E.00293
G1 X162.832 Y82.517 E.00815
G1 X162.362 Y82.533 E.01787
G1 X162.195 Y82.623 E.00721
G1 X162.14 Y82.569 E.00293
G1 X161.932 Y82.517 E.00815
G1 X161.462 Y82.533 E.01787
G1 X161.295 Y82.623 E.00721
G1 X161.24 Y82.569 E.00293
G1 X161.032 Y82.517 E.00815
G1 X160.562 Y82.533 E.01787
G1 X160.395 Y82.623 E.00721
G1 X160.34 Y82.569 E.00293
G1 X160.132 Y82.517 E.00815
G1 X159.662 Y82.533 E.01787
G1 X159.495 Y82.623 E.00721
G1 X159.44 Y82.569 E.00293
G1 X159.232 Y82.517 E.00815
G1 X158.762 Y82.533 E.01787
G1 X158.595 Y82.623 E.00721
G1 X158.54 Y82.569 E.00293
G1 X158.332 Y82.517 E.00815
G1 X157.862 Y82.533 E.01787
G1 X157.695 Y82.623 E.00721
G1 X157.64 Y82.569 E.00293
G1 X157.432 Y82.517 E.00815
G1 X156.962 Y82.533 E.01787
G1 X156.795 Y82.623 E.00721
G1 X156.74 Y82.569 E.00293
G1 X156.532 Y82.517 E.00815
G1 X156.062 Y82.533 E.01787
G1 X155.895 Y82.623 E.00721
G1 X155.84 Y82.569 E.00293
G1 X155.632 Y82.517 E.00815
G1 X155.162 Y82.533 E.01787
G1 X154.995 Y82.623 E.00721
G1 X154.828 Y82.533 E.00721
G1 X154.321 Y82.521 E.01927
G1 X154.092 Y82.602 E.00923
G1 X153.846 Y82.495 E.0102
G1 X153.438 Y82.381 E.0161
G1 X153.198 Y82.421 E.00925
G1 X152.908 Y82.621 E.01339
G1 X152.732 Y82.969 E.01482
G1 X152.627 Y82.972 E.00399
G1 X152.561 Y83.019 E.00308
G1 X151.543 Y82.996 E.0387
G1 X71.552 Y82.999 E3.04016
G1 X70.871 Y83.012 E.02589
G1 X70.788 Y82.804 E.00851
G1 X70.662 Y82.601 E.00908
G1 X70.396 Y82.418 E.01227
G1 X70.062 Y82.379 E.01278
G1 X69.495 Y82.611 E.02328
G1 X69.465 Y82.58 E.00164
G1 X69.173 Y82.515 E.01137
G1 X68.762 Y82.533 E.01564
G1 X68.595 Y82.623 E.00721
G1 X68.54 Y82.569 E.00293
G1 X68.332 Y82.517 E.00815
G1 X67.862 Y82.533 E.01787
G1 X67.695 Y82.623 E.00721
G1 X67.64 Y82.569 E.00293
G1 X67.432 Y82.517 E.00815
G1 X66.962 Y82.533 E.01787
G1 X66.795 Y82.623 E.00721
G1 X66.74 Y82.569 E.00293
G1 X66.532 Y82.517 E.00815
G1 X66.062 Y82.533 E.01787
G1 X65.895 Y82.623 E.00721
G1 X65.84 Y82.569 E.00293
G1 X65.632 Y82.517 E.00815
G1 X65.162 Y82.533 E.01787
G1 X64.995 Y82.623 E.00721
G1 X64.94 Y82.569 E.00293
G1 X64.732 Y82.517 E.00815
G1 X64.262 Y82.533 E.01787
G1 X64.095 Y82.623 E.00721
G1 X64.04 Y82.569 E.00293
G1 X63.832 Y82.517 E.00815
G1 X63.362 Y82.533 E.01787
G1 X63.195 Y82.623 E.00721
G1 X63.14 Y82.569 E.00293
G1 X62.932 Y82.517 E.00815
G1 X62.462 Y82.533 E.01787
G1 X62.295 Y82.623 E.00721
G1 X62.24 Y82.569 E.00293
G1 X62.032 Y82.517 E.00815
G1 X61.562 Y82.533 E.01787
G1 X61.395 Y82.623 E.00721
G1 X61.34 Y82.569 E.00293
G1 X61.132 Y82.517 E.00815
G1 X60.662 Y82.533 E.01787
G1 X60.495 Y82.623 E.00721
G1 X60.44 Y82.569 E.00293
G1 X60.232 Y82.517 E.00815
G1 X59.762 Y82.533 E.01787
G1 X59.595 Y82.623 E.00721
G1 X59.54 Y82.569 E.00293
G1 X59.332 Y82.517 E.00815
G1 X58.862 Y82.533 E.01787
G1 X58.695 Y82.623 E.00721
G1 X58.64 Y82.569 E.00293
G1 X58.432 Y82.517 E.00815
G1 X57.962 Y82.533 E.01787
G1 X57.795 Y82.623 E.00721
G1 X57.74 Y82.569 E.00293
G1 X57.532 Y82.517 E.00815
G1 X57.062 Y82.533 E.01787
G1 X56.895 Y82.623 E.00721
G1 X56.84 Y82.569 E.00293
G1 X56.632 Y82.517 E.00815
G1 X56.162 Y82.533 E.01787
G1 X55.995 Y82.623 E.00721
G1 X55.94 Y82.569 E.00293
G1 X55.732 Y82.517 E.00815
G1 X55.262 Y82.533 E.01787
G1 X55.095 Y82.623 E.00721
G1 X55.04 Y82.569 E.00293
G1 X54.832 Y82.517 E.00815
G1 X54.362 Y82.533 E.01787
G1 X54.195 Y82.623 E.00721
G1 X54.14 Y82.569 E.00293
G1 X53.932 Y82.517 E.00815
G1 X53.452 Y82.535 E.01826
G1 X53.295 Y82.599 E.00644
G1 X52.98 Y82.516 E.01238
G1 X53.027 Y82.194 E.01237
G1 X53.031 Y81.562 E.02402
G1 X52.946 Y81.067 E.01909
G1 X53.041 Y81.041 E.00374
G1 X53.409 Y81.096 E.01414
G1 X53.828 Y81.078 E.01594
G1 X53.995 Y80.987 E.00723
G1 X54.05 Y81.041 E.00293
G1 X54.259 Y81.093 E.00819
G1 X54.728 Y81.078 E.01783
G1 X54.895 Y80.987 E.00723
G1 X54.95 Y81.041 E.00293
G1 X55.159 Y81.093 E.00819
G1 X55.628 Y81.078 E.01783
G1 X55.795 Y80.987 E.00723
G1 X55.85 Y81.041 E.00293
G1 X56.059 Y81.093 E.00819
G1 X56.528 Y81.078 E.01783
G1 X56.695 Y80.987 E.00723
G1 X56.75 Y81.041 E.00293
G1 X56.959 Y81.093 E.00819
G1 X57.428 Y81.078 E.01783
G1 X57.595 Y80.987 E.00723
G1 X57.65 Y81.041 E.00293
G1 X57.859 Y81.093 E.00819
G1 X58.328 Y81.078 E.01783
G1 X58.495 Y80.987 E.00723
G1 X58.55 Y81.041 E.00293
G1 X58.759 Y81.093 E.00819
G1 X59.228 Y81.078 E.01783
G1 X59.395 Y80.987 E.00723
G1 X59.45 Y81.041 E.00293
G1 X59.659 Y81.093 E.00819
G1 X60.128 Y81.078 E.01783
G1 X60.295 Y80.987 E.00723
G1 X60.35 Y81.041 E.00293
G1 X60.559 Y81.093 E.00819
G1 X61.028 Y81.078 E.01783
G1 X61.195 Y80.987 E.00723
G1 X61.25 Y81.041 E.00293
G1 X61.459 Y81.093 E.00819
G1 X61.928 Y81.078 E.01783
G1 X62.095 Y80.987 E.00723
G1 X62.15 Y81.041 E.00293
G1 X62.359 Y81.093 E.00819
G1 X62.828 Y81.078 E.01783
G1 X62.995 Y80.987 E.00723
G1 X63.05 Y81.041 E.00293
G1 X63.259 Y81.093 E.00819
G1 X63.728 Y81.078 E.01783
G1 X63.895 Y80.987 E.00723
G1 X63.95 Y81.041 E.00293
G1 X64.159 Y81.093 E.00819
G1 X64.628 Y81.078 E.01783
G1 X64.795 Y80.987 E.00723
G1 X64.85 Y81.041 E.00293
G1 X65.059 Y81.093 E.00819
G1 X65.528 Y81.078 E.01783
G1 X65.695 Y80.987 E.00723
G1 X65.75 Y81.041 E.00293
G1 X65.959 Y81.093 E.00819
G1 X66.428 Y81.078 E.01783
G1 X66.595 Y80.987 E.00723
G1 X66.65 Y81.041 E.00293
G1 X66.859 Y81.093 E.00819
G1 X67.328 Y81.078 E.01783
G1 X67.495 Y80.987 E.00723
G1 X67.55 Y81.041 E.00293
G1 X67.759 Y81.093 E.00819
G1 X68.228 Y81.078 E.01783
G1 X68.395 Y80.987 E.00723
G1 X68.562 Y81.078 E.00723
G1 X68.973 Y81.096 E.01564
G1 X69.27 Y81.027 E.01159
G1 X69.387 Y81.121 E.0057
G1 X69.615 Y81.212 E.00933
G1 X69.9 Y81.223 E.01084
G1 X70.301 Y81.134 E.01561
G1 X70.529 Y80.926 E.01173
G1 X70.673 Y80.58 E.01424
G1 X72.156 Y80.615 E.05638
G1 X151.541 Y80.614 E3.01713
G1 X151.819 Y80.609 E.01057
G1 X152.418 Y80.564 E.02283
M204 P1000
G1 X152.82 Y80.225 F12000
M204 P600
;TYPE:External perimeter
G1 F1200
G1 X153.071 Y80.697 E.02032
G1 X153.238 Y80.773 E.00697
G1 X153.492 Y80.661 E.01055
G1 X153.625 Y80.632 E.00517
G1 X153.781 Y80.503 E.00769
G1 X153.882 Y80.218 E.01149
G1 X153.998 Y80.478 E.01082
G1 X154.124 Y80.618 E.00716
G1 X154.505 Y80.636 E.0145
G1 X154.681 Y80.503 E.00838
G1 X154.782 Y80.218 E.01149
G1 X154.898 Y80.478 E.01082
G1 X155.029 Y80.621 E.00737
G1 X155.405 Y80.636 E.0143
G1 X155.581 Y80.503 E.00838
G1 X155.682 Y80.218 E.01149
G1 X155.798 Y80.478 E.01082
G1 X155.929 Y80.621 E.00737
G1 X156.305 Y80.636 E.0143
G1 X156.481 Y80.503 E.00838
G1 X156.582 Y80.218 E.01149
G1 X156.698 Y80.478 E.01082
G1 X156.829 Y80.621 E.00737
G1 X157.205 Y80.636 E.0143
G1 X157.381 Y80.503 E.00838
G1 X157.482 Y80.218 E.01149
G1 X157.598 Y80.478 E.01082
G1 X157.729 Y80.621 E.00737
G1 X158.105 Y80.636 E.0143
G1 X158.281 Y80.503 E.00838
G1 X158.382 Y80.218 E.01149
G1 X158.498 Y80.478 E.01082
G1 X158.629 Y80.621 E.00737
G1 X159.005 Y80.636 E.0143
G1 X159.181 Y80.503 E.00838
G1 X159.282 Y80.218 E.01149
G1 X159.398 Y80.478 E.01082
G1 X159.529 Y80.621 E.00737
G1 X159.905 Y80.636 E.0143
G1 X160.081 Y80.503 E.00838
G1 X160.182 Y80.218 E.01149
G1 X160.298 Y80.478 E.01082
G1 X160.429 Y80.621 E.00737
G1 X160.805 Y80.636 E.0143
G1 X160.981 Y80.503 E.00838
G1 X161.082 Y80.218 E.01149
G1 X161.198 Y80.478 E.01082
G1 X161.329 Y80.621 E.00737
G1 X161.705 Y80.636 E.0143
G1 X161.881 Y80.503 E.00838
G1 X161.982 Y80.218 E.01149
G1 X162.098 Y80.478 E.01082
G1 X162.229 Y80.621 E.00737
G1 X162.605 Y80.636 E.0143
G1 X162.781 Y80.503 E.00838
G1 X162.882 Y80.218 E.01149
G1 X162.998 Y80.478 E.01082
G1 X163.129 Y80.621 E.00737
G1 X163.505 Y80.636 E.0143
G1 X163.681 Y80.503 E.00838
G1 X163.782 Y80.218 E.01149
G1 X163.898 Y80.478 E.01082
G1 X164.029 Y80.621 E.00737
G1 X164.405 Y80.636 E.0143
G1 X164.581 Y80.503 E.00838
G1 X164.682 Y80.218 E.01149
G1 X164.798 Y80.478 E.01082
G1 X164.929 Y80.621 E.00737
G1 X165.305 Y80.636 E.0143
G1 X165.481 Y80.503 E.00838
G1 X165.582 Y80.218 E.01149
G1 X165.698 Y80.478 E.01082
G1 X165.829 Y80.621 E.00737
G1 X166.205 Y80.636 E.0143
G1 X166.381 Y80.503 E.00838
G1 X166.482 Y80.218 E.01149
G1 X166.598 Y80.478 E.01082
G1 X166.729 Y80.621 E.00737
G1 X167.105 Y80.636 E.0143
G1 X167.281 Y80.503 E.00838
G1 X167.382 Y80.218 E.01149
G1 X167.498 Y80.478 E.01082
G1 X167.629 Y80.621 E.00737
G1 X168.005 Y80.636 E.0143
G1 X168.181 Y80.503 E.00838
G1 X168.282 Y80.218 E.01149
G1 X168.398 Y80.478 E.01082
G1 X168.529 Y80.621 E.00737
G1 X168.905 Y80.636 E.0143
G1 X169.081 Y80.503 E.00838
G1 X169.182 Y80.218 E.01149
G1 X169.298 Y80.478 E.01082
G1 X169.466 Y80.633 E.00869
G1 X169.855 Y80.623 E.01479
G1 X169.981 Y80.503 E.00661
G1 X170.082 Y80.218 E.01149
G1 X170.198 Y80.478 E.01082
G1 X170.336 Y80.623 E.00761
G1 X170.672 Y80.639 E.01278
G1 X170.784 Y80.56 E.00521
G1 X170.788 Y81.126 E.02151
G1 X170.695 Y81.661 E.02064
G1 X170.715 Y82.187 E.02001
G1 X170.789 Y82.699 E.01966
G1 X170.789 Y82.972 E.01038
G1 X170.618 Y82.972 E.0065
G1 X170.471 Y83.025 E.00594
G1 X170.308 Y83.392 E.01526
G1 X170.192 Y83.132 E.01082
G1 X170.077 Y82.997 E.00674
G1 X169.687 Y82.974 E.01485
G1 X169.509 Y83.107 E.00845
G1 X169.408 Y83.392 E.01149
G1 X169.292 Y83.132 E.01082
G1 X169.161 Y82.99 E.00734
G1 X168.786 Y82.974 E.01427
G1 X168.609 Y83.107 E.00841
G1 X168.508 Y83.392 E.01149
G1 X168.392 Y83.132 E.01082
G1 X168.261 Y82.99 E.00734
G1 X167.886 Y82.974 E.01427
G1 X167.709 Y83.107 E.00841
G1 X167.608 Y83.392 E.01149
G1 X167.492 Y83.132 E.01082
G1 X167.361 Y82.99 E.00734
G1 X166.986 Y82.974 E.01427
G1 X166.809 Y83.107 E.00841
G1 X166.708 Y83.392 E.01149
G1 X166.592 Y83.132 E.01082
G1 X166.461 Y82.99 E.00734
G1 X166.086 Y82.974 E.01427
G1 X165.909 Y83.107 E.00841
G1 X165.808 Y83.392 E.01149
G1 X165.692 Y83.132 E.01082
G1 X165.561 Y82.99 E.00734
G1 X165.186 Y82.974 E.01427
