; generated by PrusaSlicer 2.6.1+win64 on 2024-06-11 at 12:56:03 UTC


;
;
; 

; external perimeters extrusion width = 0.65mm
; perimeters extrusion width = 0.65mm
; infill extrusion width = 0.65mm
; solid infill extrusion width = 0.65mm
; top infill extrusion width = 0.60mm
; support material extrusion width = 0.55mm
; first layer extrusion width = 0.65mm

; external perimeters extrusion width = 0.65mm
; perimeters extrusion width = 0.65mm
; infill extrusion width = 0.65mm
; solid infill extrusion width = 0.65mm
; top infill extrusion width = 0.60mm
; support material extrusion width = 0.55mm
; first layer extrusion width = 0.65mm

; external perimeters extrusion width = 0.65mm
; perimeters extrusion width = 0.65mm
; infill extrusion width = 0.65mm
; solid infill extrusion width = 0.65mm
; top infill extrusion width = 0.60mm
; support material extrusion width = 0.55mm
; first layer extrusion width = 0.65mm

; external perimeters extrusion width = 0.65mm
; perimeters extrusion width = 0.65mm
; infill extrusion width = 0.65mm
; solid infill extrusion width = 0.65mm
; top infill extrusion width = 0.60mm
; support material extrusion width = 0.55mm
; first layer extrusion width = 0.65mm

M73 P0 R36
M73 Q0 S37
M201 X1000 Y1000 Z200 E5000 ; sets maximum accelerations, mm/sec^2
M203 X200 Y200 Z12 E120 ; sets maximum feedrates, mm / sec
M204 S1250 T1250 ; sets acceleration (S) and retract acceleration (R), mm/sec^2
M205 X8.00 Y8.00 Z0.40 E4.50 ; sets the jerk limits, mm/sec
M205 S0 T0 ; sets the minimum extruding and travel feed rate, mm/sec
;TYPE:Custom
M862.3 P "MK3S" ; printer model check
M862.1 P0.6 ; nozzle diameter check
M115 U3.13.0 ; tell printer latest fw version
G90 ; use absolute coordinates
M83 ; extruder relative mode
M104 S215 ; set extruder temp
M140 S60 ; set bed temp
M190 S60 ; wait for bed temp
M109 S215 ; wait for extruder temp
G28 W ; home all without mesh bed level
G80 ; mesh bed leveling

G1 Z0.2 F720
G1 Y-3 F1000 ; go outside print area
G92 E0
G1 X60 E9 F1000 ; intro line
G1 X100 E12.5 F1000 ; intro line

G92 E0
M221 S95
G21 ; set units to millimeters
G90 ; use absolute coordinates
M83 ; use relative distances for extrusion
M900 K0.04 ; Filament gcode LA 1.5
M900 K18 ; Filament gcode LA 1.0
M107
;LAYER_CHANGE
;Z:0.2
;HEIGHT:0.2
;BEFORE_LAYER_CHANGE
G92 E0.0
;0.2


G1 E-.8 F2100
G1 Z.4 F720
;AFTER_LAYER_CHANGE
;0.2
G1 X51.108 Y77.166 F10800
G1 Z.2 F720
M73 Q0 S36
G1 E.8 F1500
M204 S800
;TYPE:Skirt/Brim
;WIDTH:0.65
G1 F1200
G1 X51.974 Y76.922 E.04542
G1 X52.985 Y76.832 E.05124
G1 X170.934 Y76.832 E5.95393
G1 X172.379 Y77.227 E.07562
G1 X173.302 Y78.218 E.06836
G1 X173.644 Y79.423 E.06323
G1 X174.578 Y105.948 E1.33978
G1 X174.577 Y110.351 E.22226
G1 X173.896 Y156.82 E2.34595
G1 X173.484 Y158.189 E.07217
G1 X172.378 Y159.15 E.07396
G1 X171.743 Y159.442 E.03528
G1 X170.66 Y159.68 E.05597
G1 X52.639 Y159.68 E5.95757
G1 X51.264 Y159.286 E.0722
M73 P1 R36
M73 Q1 S36
G1 X50.336 Y158.289 E.06875
G1 X50.178 Y157.987 E.0172
G1 X49.888 Y156.887 E.05742
G1 X49.083 Y135.544 E1.07814
G1 X49.082 Y131.053 E.2267
G1 X49.632 Y79.487 E2.60314
G1 X50.039 Y78.116 E.07219
M73 P1 R35
G1 X51.041 Y77.226 E.06765
M204 S1000
; printing object 3dprint_rod.stl id:3 copy 0
;WIPE_START
G1 F8640
G1 X51.974 Y76.922 E-.22658
G1 X52.985 Y76.832 E-.23437
G1 X54.453 Y76.832 E-.33905
;WIPE_END
G1 Z.6 F720
G1 X152.534 Y81.09 F10800
G1 Z.2 F720
G1 E.8 F1500
M204 S800
;TYPE:Perimeter
;WIDTH:0.649999
G1 F1200
G1 X152.648 Y81.236 E.00935
;WIDTH:0.68532
G1 X153.065 Y81.456 E.02518
;WIDTH:0.708007
G1 X153.393 Y81.471 E.01816
;WIDTH:0.747303
G1 X153.53 Y81.441 E.00821
;WIDTH:0.786599
G1 X153.667 Y81.411 E.00867
;WIDTH:0.825895
G1 X153.804 Y81.381 E.00913
;WIDTH:0.839728
G1 X154.203 Y81.416 E.02654
;WIDTH:0.85231
G1 X154.703 Y81.395 E.03368
G1 X155.103 Y81.416 E.02696
G1 X155.603 Y81.395 E.03368
G1 X156.003 Y81.416 E.02696
G1 X156.503 Y81.395 E.03368
G1 X156.903 Y81.416 E.02696
G1 X157.403 Y81.395 E.03368
G1 X157.803 Y81.416 E.02696
G1 X158.303 Y81.395 E.03368
G1 X158.703 Y81.416 E.02696
G1 X159.203 Y81.395 E.03368
G1 X159.603 Y81.416 E.02696
G1 X160.103 Y81.395 E.03368
G1 X160.503 Y81.416 E.02696
G1 X161.003 Y81.395 E.03368
G1 X161.403 Y81.416 E.02696
G1 X161.903 Y81.395 E.03368
G1 X162.303 Y81.416 E.02696
G1 X162.803 Y81.395 E.03368
G1 X163.203 Y81.416 E.02696
G1 X163.703 Y81.395 E.03368
G1 X164.103 Y81.416 E.02696
G1 X164.603 Y81.395 E.03368
G1 X165.003 Y81.416 E.02696
G1 X165.503 Y81.395 E.03368
G1 X165.903 Y81.416 E.02696
G1 X166.403 Y81.395 E.03368
G1 X166.803 Y81.416 E.02696
G1 X167.303 Y81.395 E.03368
G1 X167.703 Y81.416 E.02696
G1 X168.203 Y81.395 E.03368
G1 X168.603 Y81.416 E.02696
G1 X169.103 Y81.395 E.03368
G1 X169.503 Y81.416 E.02696
;WIDTH:0.839725
G1 X170.002 Y81.37 E.0332
;WIDTH:0.833152
G1 X170.004 Y82.206 E.05493
G1 X169.719 Y82.198 E.01873
;WIDTH:0.852243
G1 X169.395 Y82.245 E.02203
G1 X169.303 Y82.215 E.00651
G1 X168.873 Y82.199 E.02896
G1 X168.495 Y82.245 E.02563
G1 X168.403 Y82.215 E.00651
G1 X167.973 Y82.199 E.02896
G1 X167.595 Y82.245 E.02563
G1 X167.503 Y82.215 E.00651
G1 X167.073 Y82.199 E.02896
G1 X166.695 Y82.245 E.02563
G1 X166.603 Y82.215 E.00651
G1 X166.173 Y82.199 E.02896
G1 X165.795 Y82.245 E.02563
G1 X165.703 Y82.215 E.00651
G1 X165.273 Y82.199 E.02896
G1 X164.895 Y82.245 E.02563
G1 X164.803 Y82.215 E.00651
G1 X164.373 Y82.199 E.02896
G1 X163.995 Y82.245 E.02563
G1 X163.903 Y82.215 E.00651
G1 X163.473 Y82.199 E.02896
G1 X163.095 Y82.245 E.02563
G1 X163.003 Y82.215 E.00651
G1 X162.573 Y82.199 E.02896
G1 X162.195 Y82.245 E.02563
G1 X162.103 Y82.215 E.00651
G1 X161.673 Y82.199 E.02896
G1 X161.295 Y82.245 E.02563
G1 X161.203 Y82.215 E.00651
G1 X160.773 Y82.199 E.02896
G1 X160.395 Y82.245 E.02563
G1 X160.303 Y82.215 E.00651
G1 X159.873 Y82.199 E.02896
G1 X159.495 Y82.245 E.02563
G1 X159.403 Y82.215 E.00651
G1 X158.973 Y82.199 E.02896
G1 X158.595 Y82.245 E.02563
G1 X158.503 Y82.215 E.00651
G1 X158.073 Y82.199 E.02896
G1 X157.695 Y82.245 E.02563
G1 X157.603 Y82.215 E.00651
G1 X157.173 Y82.199 E.02896
G1 X156.795 Y82.245 E.02563
G1 X156.703 Y82.215 E.00651
G1 X156.273 Y82.199 E.02896
G1 X155.895 Y82.245 E.02563
G1 X155.803 Y82.215 E.00651
G1 X155.373 Y82.199 E.02896
G1 X154.995 Y82.245 E.02563
G1 X154.903 Y82.215 E.00651
G1 X154.473 Y82.199 E.02896
;WIDTH:0.849435
G1 X154.096 Y82.246 E.02548
G1 X153.801 Y82.142 E.02098
;WIDTH:0.828867
G1 X153.682 Y82.139 E.00778
;WIDTH:0.788581
G1 X153.562 Y82.135 E.00744
;WIDTH:0.748294
G1 X153.443 Y82.132 E.00698
;WIDTH:0.708007
G1 X153.121 Y82.197 E.01817
;WIDTH:0.68532
G1 X152.743 Y82.477 E.02513
;WIDTH:0.649999
G1 X152.561 Y82.803 E.01885
G1 X151.543 Y82.771 E.05141
G1 X72.234 Y82.771 E4.00342
G1 X71.053 Y82.796 E.05963
G1 X70.826 Y82.456 E.02064
G1 X70.476 Y82.214 E.02148
;WIDTH:0.680472
G1 X70.222 Y82.177 E.01361
;WIDTH:0.710945
G1 X69.969 Y82.14 E.0142
;WIDTH:0.75421
G1 X69.732 Y82.208 E.01458
;WIDTH:0.797475
G1 X69.495 Y82.275 E.01545
G1 X69.418 Y82.247 E.00514
;WIDTH:0.830949
G1 X68.973 Y82.199 E.02933
;WIDTH:0.852243
G1 X68.595 Y82.245 E.02563
G1 X68.503 Y82.215 E.00651
G1 X68.073 Y82.199 E.02896
G1 X67.695 Y82.245 E.02563
G1 X67.603 Y82.215 E.00651
G1 X67.173 Y82.199 E.02896
G1 X66.795 Y82.245 E.02563
G1 X66.703 Y82.215 E.00651
G1 X66.273 Y82.199 E.02896
G1 X65.895 Y82.245 E.02563
G1 X65.803 Y82.215 E.00651
G1 X65.373 Y82.199 E.02896
G1 X64.995 Y82.245 E.02563
G1 X64.903 Y82.215 E.00651
G1 X64.473 Y82.199 E.02896
G1 X64.095 Y82.245 E.02563
G1 X64.003 Y82.215 E.00651
G1 X63.573 Y82.199 E.02896
G1 X63.195 Y82.245 E.02563
G1 X63.103 Y82.215 E.00651
G1 X62.673 Y82.199 E.02896
G1 X62.295 Y82.245 E.02563
G1 X62.203 Y82.215 E.00651
G1 X61.773 Y82.199 E.02896
G1 X61.395 Y82.245 E.02563
G1 X61.303 Y82.215 E.00651
G1 X60.873 Y82.199 E.02896
G1 X60.495 Y82.245 E.02563
G1 X60.403 Y82.215 E.00651
G1 X59.973 Y82.199 E.02896
G1 X59.595 Y82.245 E.02563
G1 X59.503 Y82.215 E.00651
G1 X59.073 Y82.199 E.02896
G1 X58.695 Y82.245 E.02563
G1 X58.603 Y82.215 E.00651
G1 X58.173 Y82.199 E.02896
G1 X57.795 Y82.245 E.02563
G1 X57.703 Y82.215 E.00651
G1 X57.273 Y82.199 E.02896
G1 X56.895 Y82.245 E.02563
G1 X56.803 Y82.215 E.00651
G1 X56.373 Y82.199 E.02896
G1 X55.995 Y82.245 E.02563
G1 X55.903 Y82.215 E.00651
G1 X55.473 Y82.199 E.02896
G1 X55.095 Y82.245 E.02563
G1 X55.003 Y82.215 E.00651
G1 X54.376 Y82.206 E.0422
;WIDTH:0.83827
G1 X53.873 Y82.196 E.03327
G1 X53.261 Y82.246 E.04061
;WIDTH:0.830922
G1 X53.261 Y81.38 E.05674
G1 X53.655 Y81.411 E.0259
;WIDTH:0.852249
G1 X53.995 Y81.365 E.02309
G1 X54.087 Y81.395 E.00651
G1 X54.517 Y81.411 E.02896
G1 X54.895 Y81.365 E.02563
G1 X54.987 Y81.395 E.00651
G1 X55.417 Y81.411 E.02896
G1 X55.795 Y81.365 E.02563
G1 X55.887 Y81.395 E.00651
G1 X56.317 Y81.411 E.02896
G1 X56.695 Y81.365 E.02563
G1 X56.787 Y81.395 E.00651
G1 X57.217 Y81.411 E.02896
G1 X57.595 Y81.365 E.02563
G1 X57.687 Y81.395 E.00651
G1 X58.117 Y81.411 E.02896
G1 X58.495 Y81.365 E.02563
G1 X58.587 Y81.395 E.00651
G1 X59.017 Y81.411 E.02896
G1 X59.395 Y81.365 E.02563
G1 X59.487 Y81.395 E.00651
G1 X59.917 Y81.411 E.02896
G1 X60.295 Y81.365 E.02563
G1 X60.387 Y81.395 E.00651
G1 X60.817 Y81.411 E.02896
G1 X61.195 Y81.365 E.02563
G1 X61.287 Y81.395 E.00651
G1 X61.717 Y81.411 E.02896
G1 X62.095 Y81.365 E.02563
G1 X62.187 Y81.395 E.00651
G1 X62.617 Y81.411 E.02896
G1 X62.995 Y81.365 E.02563
G1 X63.087 Y81.395 E.00651
G1 X63.517 Y81.411 E.02896
G1 X63.895 Y81.365 E.02563
G1 X63.987 Y81.395 E.00651
G1 X64.417 Y81.411 E.02896
G1 X64.795 Y81.365 E.02563
G1 X64.887 Y81.395 E.00651
G1 X65.317 Y81.411 E.02896
G1 X65.695 Y81.365 E.02563
G1 X65.787 Y81.395 E.00651
G1 X66.217 Y81.411 E.02896
G1 X66.595 Y81.365 E.02563
G1 X66.687 Y81.395 E.00651
G1 X67.117 Y81.411 E.02896
G1 X67.495 Y81.365 E.02563
G1 X67.587 Y81.395 E.00651
G1 X68.017 Y81.411 E.02896
G1 X68.395 Y81.365 E.02563
G1 X68.63 Y81.418 E.01621
G1 X69.202 Y81.387 E.03855
;WIDTH:0.836149
G1 X69.559 Y81.505 E.0248
;WIDTH:0.797475
G1 X69.729 Y81.492 E.0107
;WIDTH:0.75421
G1 X69.899 Y81.479 E.01008
;WIDTH:0.710945
G1 X70.155 Y81.404 E.01482
;WIDTH:0.680472
G1 X70.411 Y81.33 E.01413
;WIDTH:0.649999
G1 X70.652 Y81.133 E.01571
G1 X70.829 Y80.822 E.01806
G1 X72.156 Y80.84 E.06699
G1 X151.541 Y80.839 E4.00726
G1 X152.349 Y80.8 E.04083
G1 X152.478 Y81.02 E.01287
M204 S1000
G1 X152.988 Y80.713 F10800
M204 S800
;TYPE:External perimeter
G1 F1200
G1 X153.183 Y80.842 E.0118
G1 X153.29 Y80.844 E.0054
G1 X153.531 Y80.725 E.01357
G1 X153.643 Y80.705 E.00574
G1 X153.849 Y80.534 E.01351
G1 X153.891 Y80.422 E.00604
G1 X153.941 Y80.534 E.00619
G1 X154.144 Y80.704 E.01337
G1 X154.541 Y80.706 E.02004
G1 X154.748 Y80.536 E.01352
G1 X154.791 Y80.423 E.0061
G1 X154.842 Y80.536 E.00626
G1 X155.049 Y80.706 E.01352
G1 X155.441 Y80.706 E.01979
G1 X155.648 Y80.536 E.01352
G1 X155.691 Y80.423 E.0061
G1 X155.742 Y80.536 E.00626
G1 X155.949 Y80.706 E.01352
G1 X156.341 Y80.706 E.01979
G1 X156.548 Y80.536 E.01352
G1 X156.591 Y80.423 E.0061
G1 X156.642 Y80.536 E.00626
G1 X156.849 Y80.706 E.01352
G1 X157.241 Y80.706 E.01979
G1 X157.448 Y80.536 E.01352
G1 X157.491 Y80.423 E.0061
G1 X157.542 Y80.536 E.00626
G1 X157.749 Y80.706 E.01352
G1 X158.141 Y80.706 E.01979
G1 X158.348 Y80.536 E.01352
G1 X158.391 Y80.423 E.0061
G1 X158.442 Y80.536 E.00626
G1 X158.649 Y80.706 E.01352
G1 X159.041 Y80.706 E.01979
G1 X159.248 Y80.536 E.01352
G1 X159.291 Y80.423 E.0061
G1 X159.342 Y80.536 E.00626
G1 X159.549 Y80.706 E.01352
G1 X159.941 Y80.706 E.01979
G1 X160.148 Y80.536 E.01352
G1 X160.191 Y80.423 E.0061
G1 X160.242 Y80.536 E.00626
G1 X160.449 Y80.706 E.01352
G1 X160.841 Y80.706 E.01979
G1 X161.048 Y80.536 E.01352
G1 X161.091 Y80.423 E.0061
G1 X161.142 Y80.536 E.00626
G1 X161.349 Y80.706 E.01352
G1 X161.741 Y80.706 E.01979
G1 X161.948 Y80.536 E.01352
G1 X161.991 Y80.423 E.0061
G1 X162.042 Y80.536 E.00626
G1 X162.249 Y80.706 E.01352
G1 X162.641 Y80.706 E.01979
G1 X162.848 Y80.536 E.01352
G1 X162.891 Y80.423 E.0061
G1 X162.942 Y80.536 E.00626
G1 X163.149 Y80.706 E.01352
G1 X163.541 Y80.706 E.01979
G1 X163.748 Y80.536 E.01352
G1 X163.791 Y80.423 E.0061
G1 X163.842 Y80.536 E.00626
G1 X164.049 Y80.706 E.01352
G1 X164.441 Y80.706 E.01979
G1 X164.648 Y80.536 E.01352
G1 X164.691 Y80.423 E.0061
G1 X164.742 Y80.536 E.00626
G1 X164.949 Y80.706 E.01352
G1 X165.341 Y80.706 E.01979
G1 X165.548 Y80.536 E.01352
G1 X165.591 Y80.423 E.0061
G1 X165.642 Y80.536 E.00626
G1 X165.849 Y80.706 E.01352
G1 X166.241 Y80.706 E.01979
G1 X166.448 Y80.536 E.01352
G1 X166.491 Y80.423 E.0061
G1 X166.542 Y80.536 E.00626
G1 X166.749 Y80.706 E.01352
G1 X167.141 Y80.706 E.01979
G1 X167.348 Y80.536 E.01352
G1 X167.391 Y80.423 E.0061
G1 X167.442 Y80.536 E.00626
G1 X167.649 Y80.706 E.01352
G1 X168.041 Y80.706 E.01979
G1 X168.248 Y80.536 E.01352
G1 X168.291 Y80.423 E.0061
G1 X168.342 Y80.536 E.00626
G1 X168.549 Y80.706 E.01352
G1 X168.941 Y80.706 E.01979
G1 X169.148 Y80.536 E.01352
G1 X169.191 Y80.423 E.0061
G1 X169.232 Y80.513 E.00499
G1 X169.4 Y80.69 E.01232
G1 X169.713 Y80.714 E.01585
G1 X169.937 Y80.665 E.01157
G1 X170.091 Y80.423 E.01448
G1 X170.253 Y80.665 E.0147
G1 X170.419 Y80.714 E.00874
G1 X170.706 Y80.69 E.01454
G1 X170.709 Y82.897 E.11141
G1 X170.618 Y82.897 E.00459
G1 X170.425 Y82.966 E.01035
G1 X170.299 Y83.188 E.01289
G1 X170.166 Y82.967 E.01302
G1 X169.972 Y82.897 E.01041
G1 X169.649 Y82.905 E.01631
G1 X169.442 Y83.075 E.01352
G1 X169.399 Y83.187 E.00606
G1 X169.348 Y83.075 E.00621
G1 X169.141 Y82.905 E.01352
G1 X168.749 Y82.905 E.01979
G1 X168.542 Y83.075 E.01352
G1 X168.499 Y83.187 E.00606
G1 X168.448 Y83.075 E.00621
G1 X168.241 Y82.905 E.01352
G1 X167.849 Y82.905 E.01979
G1 X167.642 Y83.075 E.01352
G1 X167.599 Y83.187 E.00606
G1 X167.548 Y83.075 E.00621
G1 X167.341 Y82.905 E.01352
G1 X166.949 Y82.905 E.01979
G1 X166.742 Y83.075 E.01352
G1 X166.699 Y83.187 E.00606
G1 X166.648 Y83.075 E.00621
G1 X166.441 Y82.905 E.01352
G1 X166.049 Y82.905 E.01979
G1 X165.842 Y83.075 E.01352
G1 X165.799 Y83.187 E.00606
G1 X165.748 Y83.075 E.00621
G1 X165.541 Y82.905 E.01352
G1 X165.149 Y82.905 E.01979
G1 X164.942 Y83.075 E.01352
G1 X164.899 Y83.187 E.00606
G1 X164.848 Y83.075 E.00621
G1 X164.641 Y82.905 E.01352
G1 X164.249 Y82.905 E.01979
G1 X164.042 Y83.075 E.01352
G1 X163.999 Y83.187 E.00606
G1 X163.948 Y83.075 E.00621
G1 X163.741 Y82.905 E.01352
G1 X163.349 Y82.905 E.01979
G1 X163.142 Y83.075 E.01352
G1 X163.099 Y83.187 E.00606
G1 X163.048 Y83.075 E.00621
G1 X162.841 Y82.905 E.01352
G1 X162.449 Y82.905 E.01979
G1 X162.242 Y83.075 E.01352
G1 X162.199 Y83.187 E.00606
G1 X162.148 Y83.075 E.00621
G1 X161.941 Y82.905 E.01352
G1 X161.549 Y82.905 E.01979
G1 X161.342 Y83.075 E.01352
G1 X161.299 Y83.187 E.00606
G1 X161.248 Y83.075 E.00621
G1 X161.041 Y82.905 E.01352
G1 X160.649 Y82.905 E.01979
G1 X160.442 Y83.075 E.01352
G1 X160.399 Y83.187 E.00606
G1 X160.348 Y83.075 E.00621
G1 X160.141 Y82.905 E.01352
G1 X159.749 Y82.905 E.01979
G1 X159.542 Y83.075 E.01352
G1 X159.499 Y83.187 E.00606
G1 X159.448 Y83.075 E.00621
G1 X159.241 Y82.905 E.01352
G1 X158.849 Y82.905 E.01979
G1 X158.642 Y83.075 E.01352
G1 X158.599 Y83.187 E.00606
G1 X158.548 Y83.075 E.00621
G1 X158.341 Y82.905 E.01352
G1 X157.949 Y82.905 E.01979
G1 X157.742 Y83.075 E.01352
G1 X157.699 Y83.187 E.00606
G1 X157.648 Y83.075 E.00621
G1 X157.441 Y82.905 E.01352
G1 X157.049 Y82.905 E.01979
G1 X156.842 Y83.075 E.01352
G1 X156.799 Y83.187 E.00606
G1 X156.748 Y83.075 E.00621
G1 X156.541 Y82.905 E.01352
G1 X156.149 Y82.905 E.01979
G1 X155.942 Y83.075 E.01352
G1 X155.899 Y83.187 E.00606
G1 X155.848 Y83.075 E.00621
G1 X155.641 Y82.905 E.01352
G1 X155.249 Y82.905 E.01979
G1 X155.042 Y83.075 E.01352
G1 X154.999 Y83.187 E.00606
G1 X154.958 Y83.097 E.00499
G1 X154.79 Y82.921 E.01228
G1 X154.419 Y82.897 E.01877
G1 X154.246 Y82.95 E.00913
G1 X154.099 Y83.187 E.01408
G1 X153.942 Y82.952 E.01427
G1 X153.548 Y82.791 E.02149
G1 X153.383 Y82.772 E.00838
G1 X153.186 Y82.894 E.0117
G1 X152.999 Y83.375 E.02605
G1 X152.758 Y83.368 E.01217
G1 X152.647 Y83.443 E.00676
G1 X152.576 Y83.443 E.00358
G1 X152.049 Y83.388 E.02675
G1 X151.543 Y83.378 E.02555
G1 X72.234 Y83.378 E4.00342
G1 X71.202 Y83.39 E.0521
